assets/images/techs/figma.svg

<?xml version="1.0" encoding="UTF-8"?>
<svg width="36px" height="50px" viewBox="0 0 36 50" version="1.1" xmlns="http://www.w3.org/2000/svg" xmlns:xlink="http://www.w3.org/1999/xlink">
    <title>figma</title>
    <g id="Page-1" stroke="none" stroke-width="1" fill="none" fill-rule="evenodd">
        <g id="figma" fill="#133A94" fill-rule="nonzero">
            <path d="M26.025,18.7104 L16.4667,18.7104 L16.4667,0 L26.025,0 C31.1833,0 35.3792,4.19583 35.3792,9.35417 C35.3792,14.5125 31.1833,18.7104 26.025,18.7104 Z M19.5312,15.6458 L26.025,15.6458 C29.4937,15.6458 32.3146,12.8229 32.3146,9.35625 C32.3146,5.88958 29.4917,3.06667 26.025,3.06667 L19.5312,3.06667 L19.5312,15.6458 Z M19.5312,18.7104 L9.97499,18.7104 C4.81666,18.7104 0.620827,14.5146 0.620827,9.35625 C0.620827,4.19792 4.81666,0 9.97499,0 L19.5333,0 L19.5333,18.7104 L19.5312,18.7104 Z M9.97499,3.06458 C6.50624,3.06458 3.68541,5.8875 3.68541,9.35417 C3.68541,12.8208 6.50624,15.6458 9.97499,15.6458 L16.4687,15.6458 L16.4687,3.06458 L9.97499,3.06458 Z M19.5312,34.3542 L9.97499,34.3542 C4.81666,34.3542 0.620827,30.1583 0.620827,25 C0.620827,19.8417 4.81666,15.6458 9.97499,15.6458 L19.5333,15.6458 L19.5333,34.3542 L19.5312,34.3542 Z M9.97499,18.7104 C6.50624,18.7104 3.68541,21.5333 3.68541,25 C3.68541,28.4667 6.50833,31.2896 9.97499,31.2896 L16.4687,31.2896 L16.4687,18.7104 L9.97499,18.7104 Z M10.025,50 C4.83958,50 0.618744,45.8042 0.618744,40.6458 C0.618744,35.4875 4.81458,31.2917 9.97291,31.2917 L19.5312,31.2917 L19.5312,40.5438 C19.5312,45.7583 15.2667,50 10.025,50 Z M9.97499,34.3542 C8.30757,34.3564 6.70907,35.0197 5.53002,36.1988 C4.35097,37.3778 3.68762,38.9763 3.68541,40.6437 C3.68541,44.1125 6.52916,46.9333 10.0271,46.9333 C13.5792,46.9333 16.4708,44.0667 16.4708,40.5417 L16.4708,34.3542 L9.97499,34.3542 Z M26.025,34.3542 L25.8208,34.3542 C20.6625,34.3542 16.4667,30.1583 16.4667,25 C16.4667,19.8417 20.6625,15.6458 25.8208,15.6458 L26.025,15.6458 C31.1833,15.6458 35.3792,19.8417 35.3792,25 C35.3792,30.1583 31.1833,34.3542 26.025,34.3542 Z M25.8229,18.7104 C22.3542,18.7104 19.5333,21.5333 19.5333,25 C19.5333,28.4667 22.3562,31.2896 25.8229,31.2896 L26.0271,31.2896 C29.4958,31.2896 32.3167,28.4667 32.3167,25 C32.3167,21.5333 29.4937,18.7104 26.0271,18.7104 L25.8229,18.7104 Z" id="Shape"></path>
        </g>
    </g>
</svg>

<svg width="36" height="50" xmlns="http://www.w3.org/2000/svg"><path d="M26.025 18.71h-9.558V0h9.558c5.158 0 9.354 4.196 9.354 9.354 0 5.159-4.196 9.356-9.354 9.356zm-6.494-3.064h6.494a6.297 6.297 0 006.29-6.29 6.299 6.299 0 00-6.29-6.29h-6.494v12.58zm0 3.064H9.975c-5.158 0-9.354-4.195-9.354-9.354C.62 4.198 4.817 0 9.975 0h9.558v18.71h-.002zM9.975 3.065a6.297 6.297 0 00-6.29 6.29c0 3.466 2.821 6.29 6.29 6.29h6.494V3.066H9.975zm9.556 31.29H9.975C4.817 34.354.621 30.157.621 25s4.196-9.354 9.354-9.354h9.558v18.708h-.002zM9.975 18.71A6.297 6.297 0 003.685 25a6.299 6.299 0 006.29 6.29h6.494V18.71H9.975zm.05 31.29C4.84 50 .619 45.804.619 40.646c0-5.159 4.196-9.354 9.354-9.354h9.558v9.252c0 5.214-4.264 9.456-9.506 9.456zm-.05-15.646a6.298 6.298 0 00-6.29 6.29c0 3.468 2.844 6.29 6.342 6.29 3.552 0 6.444-2.867 6.444-6.392v-6.188H9.975zm16.05 0h-.204c-5.159 0-9.354-4.196-9.354-9.354 0-5.158 4.196-9.354 9.354-9.354h.204c5.158 0 9.354 4.196 9.354 9.354 0 5.158-4.196 9.354-9.354 9.354zm-.202-15.644a6.297 6.297 0 00-6.29 6.29 6.299 6.299 0 006.29 6.29h.204a6.297 6.297 0 006.29-6.29 6.299 6.299 0 00-6.29-6.29h-.204z" fill="#133A94" fill-rule="nonzero"/></svg>
